elama/app/images/src/network/mess-01.svg

<svg xmlns="http://www.w3.org/2000/svg" viewBox="-49 141 512 512"><path d="M207 141C65.516 141-49 255.496-49 397c0 44.902 11.711 88.758 33.949 127.438l-32.984 102.43a19.996 19.996 0 004.895 20.273 20.003 20.003 0 0020.273 4.895l102.43-32.984C118.242 641.289 162.098 653 207 653c141.484 0 256-114.496 256-256 0-141.484-114.496-256-256-256zm0 472c-40.559 0-80.094-11.316-114.332-32.727a20.013 20.013 0 00-16.734-2.078L1.992 602.008l23.813-73.941a20.013 20.013 0 00-2.082-16.734C2.316 477.094-9 437.559-9 397c0-119.102 96.898-216 216-216s216 96.898 216 216-96.898 216-216 216zm25-216c0 13.805-11.191 25-25 25s-25-11.195-25-25c0-13.809 11.191-25 25-25s25 11.191 25 25zm100 0c0 13.805-11.191 25-25 25s-25-11.195-25-25c0-13.809 11.191-25 25-25s25 11.191 25 25zm-200 0c0 13.805-11.191 25-25 25-13.805 0-25-11.195-25-25 0-13.809 11.195-25 25-25 13.809 0 25 11.191 25 25z" fill="#fff"/></svg>

<?xml version="1.0" encoding="iso-8859-1"?>
<!-- Generator: Adobe Illustrator 23.0.1, SVG Export Plug-In . SVG Version: 6.00 Build 0)  -->
<svg version="1.1" id="Capa_1" xmlns="http://www.w3.org/2000/svg" xmlns:xlink="http://www.w3.org/1999/xlink" x="0px" y="0px"
	 viewBox="-49 141 512 512" style="enable-background:new -49 141 512 512;" xml:space="preserve">
<path style="fill:#FFFFFF;" d="M207,141C65.516,141-49,255.496-49,397c0,44.902,11.711,88.758,33.949,127.438l-32.984,102.43
	c-2.301,7.141-0.41,14.969,4.895,20.273c5.254,5.254,13.063,7.215,20.273,4.895l102.43-32.984C118.242,641.289,162.098,653,207,653
	c141.484,0,256-114.496,256-256C463,255.516,348.504,141,207,141z M207,613c-40.559,0-80.094-11.316-114.332-32.727
	c-4.926-3.078-11.043-3.91-16.734-2.078L1.992,602.008l23.813-73.941c1.805-5.609,1.043-11.734-2.082-16.734
	C2.316,477.094-9,437.559-9,397c0-119.102,96.898-216,216-216s216,96.898,216,216S326.102,613,207,613z M232,397
	c0,13.805-11.191,25-25,25s-25-11.195-25-25c0-13.809,11.191-25,25-25S232,383.191,232,397z M332,397c0,13.805-11.191,25-25,25
	s-25-11.195-25-25c0-13.809,11.191-25,25-25S332,383.191,332,397z M132,397c0,13.805-11.191,25-25,25c-13.805,0-25-11.195-25-25
	c0-13.809,11.195-25,25-25C120.809,372,132,383.191,132,397z"/>
</svg>
